SVG/plus.svg

<?xml version="1.0" encoding="utf-8"?>
<!-- Generated by IcoMoon.io -->
<!DOCTYPE svg PUBLIC "-//W3C//DTD SVG 1.1//EN" "http://www.w3.org/Graphics/SVG/1.1/DTD/svg11.dtd">
<svg version="1.1" xmlns="http://www.w3.org/2000/svg" xmlns:xlink="http://www.w3.org/1999/xlink" width="11" height="14" viewBox="0 0 11 14">
<path fill="#444444" d="M11 5.75v1.5q0 0.312-0.219 0.531t-0.531 0.219h-3.25v3.25q0 0.312-0.219 0.531t-0.531 0.219h-1.5q-0.312 0-0.531-0.219t-0.219-0.531v-3.25h-3.25q-0.312 0-0.531-0.219t-0.219-0.531v-1.5q0-0.312 0.219-0.531t0.531-0.219h3.25v-3.25q0-0.312 0.219-0.531t0.531-0.219h1.5q0.312 0 0.531 0.219t0.219 0.531v3.25h3.25q0.312 0 0.531 0.219t0.219 0.531z"></path>
</svg>

<svg xmlns="http://www.w3.org/2000/svg" viewBox="0 0 11 14"><path d="M11 5.75v1.5q0 .312-.22.53t-.53.22H7v3.25q0 .312-.22.53t-.53.22h-1.5q-.312 0-.53-.22T4 11.25V8H.75q-.312 0-.53-.22T0 7.25v-1.5q0-.312.22-.53T.75 5H4V1.75q0-.312.22-.53T4.75 1h1.5q.312 0 .53.22t.22.53V5h3.25q.312 0 .53.22t.22.53z" /></svg>
